X: 1
T: Childgrove
O: England 1701
R: reel
Z: John Chambers <jc@trillian.mit.edu>
M: 2/4
N: Karpeles &  Schofield p.22,52; Playford Ball; Raven p.23; Barlow #426
L: 1/8
N: Sometimes played in dorian rather than minor.
K: Dm
P: Childgrove in Dm
|: A \
| "Dm"Ad de | f2 ed | "Gm"gf ed | "Am"e>d c/B/A \
| "Dm"Ad de | f2 ea | "Gm"g>f "A7"e/f/e/d/ | "Dm"d3 :|
|: f/g/ \
| "F"af fa | "C"ge eg | "Dm"fd d/e/f/d/ | "A7"eA Af/g/ \
| "F"a>g f/g/a/f/ | "C"g>f e/f/g/e/ | "Dm"fe/d/ "A7"ed/^c/ | "Dm"d3 :|
P: Childgrove in Em
K: Em
|: B \
| "Em"Be ef | g2 fe | "Am"ag fe | "Bm"f>e d/c/B \
| "Em"Be ef | g2 fb | "Am"a>g "B7"f/g/f/e/ | "Em"e3 :|
|: g/a/ \
| "G"bg gb | "D"af fa | "Em"ge e/f/g/e/ | "B7"fB Bg/a/ \
| "G"b>a g/a/b/g/ | "D"a>g f/g/a/f/ | "Em"gf/e/ "B7"fe/^d/ | "Em"e3 :|
